X: 16
T:The Meeting of the Waters
% Nottingham Music Database
S:Kevin Briggs, via EF
M:4/4
L:1/4
K:D
A/2B/2|"D"d2 df|"D"A2 dc|"G"Bd BG|"D"A2 de|"D"fa Aa|"G"gf ed|"A"f2 -"E7"f2|\
"A"e2 "A7"AB|
"D"d2 df|"D"A2 dc|"G"Bd BG|"D"A2 de|"D"fa gf|"A7"gA ce|"D"d3/2e/2 "A7"dc|\
"D"de "A7"fg||
"D"a3/2g/2 fa|"D"d2 fd|"G"Bd BG|"D"A2 de|"D"fa Aa|"G"gf ed|"A"f2 -"E7"f2|\
"A7"e2 fg|
"D"a3/2g/2 fa|"D"d2 fd|"G"Bd BG|"D"A2 de|"D"fa gf|"A7"gA ce|"D"d3/2e/2 "A7"dc|\
"D"d3||


